packages/tokens/icons/envelopeDual/size16Px.svg

<svg viewBox="0 0 16 16" fill="none" xmlns="http://www.w3.org/2000/svg" width="1em" height="1em"><path d="M1.5 8C1.5 7.72386 1.72386 7.5 2 7.5L10 7.5C10.2761 7.5 10.5 7.72386 10.5 8V13C10.5 13.2761 10.2761 13.5 10 13.5H2C1.72386 13.5 1.5 13.2761 1.5 13L1.5 8Z" stroke="currentColor"/><path d="M5.5 5V4.5C5.5 3.94772 5.94772 3.5 6.5 3.5L13.5 3.5C14.0523 3.5 14.5 3.94772 14.5 4.5V8.5C14.5 9.05228 14.0523 9.5 13.5 9.5H13" stroke="currentColor" stroke-linecap="round"/><path d="M1.54504 7.6211L5.17875 11.0557C5.58012 11.435 6.22207 11.426 6.6126 11.0355L10.1481 7.49992" stroke="currentColor"/></svg>

<svg xmlns="http://www.w3.org/2000/svg" fill="none" viewBox="0 0 16 16" width="1em" height="1em"><path stroke="currentColor" d="M1.5 8a.5.5 0 0 1 .5-.5h8a.5.5 0 0 1 .5.5v5a.5.5 0 0 1-.5.5H2a.5.5 0 0 1-.5-.5V8Z"/><path stroke="currentColor" stroke-linecap="round" d="M5.5 5v-.5a1 1 0 0 1 1-1h7a1 1 0 0 1 1 1v4a1 1 0 0 1-1 1H13"/><path stroke="currentColor" d="m1.545 7.621 3.634 3.435c.401.379 1.043.37 1.434-.02L10.148 7.5"/></svg>
